svg/fluentui-system-icons/ic_fluent_people_money_24_filled.svg

<svg width="24" height="24" viewBox="0 0 24 24" fill="none" xmlns="http://www.w3.org/2000/svg">
<path d="M8 11C10.2091 11 12 9.20914 12 7C12 4.79086 10.2091 3 8 3C5.79086 3 4 4.79086 4 7C4 9.20914 5.79086 11 8 11ZM17 11C18.6569 11 20 9.65685 20 8C20 6.34315 18.6569 5 17 5C15.3431 5 14 6.34315 14 8C14 9.65685 15.3431 11 17 11ZM4.25 13C3.00736 13 2 14.0074 2 15.25V15.5C2 15.5 2 20 8 20C9.2378 20 10.2202 19.8085 11 19.5045L11 19.5V15.5C11 14.4362 11.6645 13.5276 12.601 13.1665C12.3385 13.0592 12.0512 13 11.75 13H4.25ZM12 15.5C12 14.6716 12.6716 14 13.5 14H21.5C22.3284 14 23 14.6716 23 15.5V19.5C23 20.3284 22.3284 21 21.5 21H13.5C12.6716 21 12 20.3284 12 19.5V15.5ZM13 16V17C14.1046 17 15 16.1046 15 15H14C14 15.5523 13.5523 16 13 16ZM22 17V16C21.4477 16 21 15.5523 21 15H20C20 16.1046 20.8954 17 22 17ZM20 20H21C21 19.4477 21.4477 19 22 19V18C20.8954 18 20 18.8954 20 20ZM13 18V19C13.5523 19 14 19.4477 14 20H15C15 18.8954 14.1046 18 13 18ZM17.5 19.25C18.4665 19.25 19.25 18.4665 19.25 17.5C19.25 16.5335 18.4665 15.75 17.5 15.75C16.5335 15.75 15.75 16.5335 15.75 17.5C15.75 18.4665 16.5335 19.25 17.5 19.25Z" fill="#212121"/>
</svg>

<svg xmlns="http://www.w3.org/2000/svg" width="24" height="24"><path d="M8 11a4 4 0 1 0 0-8 4 4 0 0 0 0 8Zm9 0a3 3 0 1 0 0-6 3 3 0 0 0 0 6ZM4.25 13A2.25 2.25 0 0 0 2 15.25v.25S2 20 8 20c1.238 0 2.22-.192 3-.495V15.5c0-1.064.665-1.972 1.601-2.334A2.244 2.244 0 0 0 11.75 13h-7.5ZM12 15.5a1.5 1.5 0 0 1 1.5-1.5h8a1.5 1.5 0 0 1 1.5 1.5v4a1.5 1.5 0 0 1-1.5 1.5h-8a1.5 1.5 0 0 1-1.5-1.5v-4Zm1 .5v1a2 2 0 0 0 2-2h-1a1 1 0 0 1-1 1Zm9 1v-1a1 1 0 0 1-1-1h-1a2 2 0 0 0 2 2Zm-2 3h1a1 1 0 0 1 1-1v-1a2 2 0 0 0-2 2Zm-7-2v1a1 1 0 0 1 1 1h1a2 2 0 0 0-2-2Zm4.5 1.25a1.75 1.75 0 1 0 0-3.5 1.75 1.75 0 0 0 0 3.5Z"/></svg>
